X:1
T:[ID 2-123]
T:[ID 2-123]
T:Bezeichnung standardisiert: Polonaise Polonoise
T:Urheber unbekannt Datum in der hier transkribierten schriftlichen Quelle: 1767
C:Urheber unbekannt
C:Datum in der hier transkribierten schriftlichen Quelle: 1767
L:1/8
M:3/4
K:C
V:1 treble 
V:1
 c2 g2 f2 | e/g/f/a/ e/d/c/B/ c2 | F/E/F/D/ aa/g/ f/e/d/c/ | B/c/d/B/{A} G4 | %4
 e/d/d/f/ f/e/e/g/ g2 | e/d/d/f/ f/e/e/g/ g2 | fa/g/ fedc | e/d/c/B/ c2 C2 :: G2 f2 e2 | %9
 ed/c/ B/c/d/B/{A} G2 | G2 f2 e2 | ed/c/ B/c/d/B/{A} G2 | ccdd d2 | BB B/c/d/B/ c2 | ccdd d2 | %15
 BB B/c/d/B/ c2 | a/f/c/A/ F a2 g/e/ | g/e/c/G/ E g2 f/e/ | fa/g/ fedc | e/d/c/B/ c2 C2 :| %20

